frontend/public/kraken.svg

<?xml version="1.0" encoding="UTF-8" standalone="no"?>
<svg
   width="250"
   height="39.348"
   viewBox="0 0 250 39.348"
   fill="none"
   version="1.1"
   id="svg371"
   sodipodi:docname="kraken.svg"
   inkscape:version="1.2.2 (732a01da63, 2022-12-09)"
   xmlns:inkscape="http://www.inkscape.org/namespaces/inkscape"
   xmlns:sodipodi="http://sodipodi.sourceforge.net/DTD/sodipodi-0.dtd"
   xmlns="http://www.w3.org/2000/svg"
   xmlns:svg="http://www.w3.org/2000/svg">
  <defs
     id="defs375" />
  <sodipodi:namedview
     id="namedview373"
     pagecolor="#505050"
     bordercolor="#ffffff"
     borderopacity="1"
     inkscape:showpageshadow="0"
     inkscape:pageopacity="0"
     inkscape:pagecheckerboard="1"
     inkscape:deskcolor="#505050"
     showgrid="false"
     inkscape:zoom="5.9"
     inkscape:cx="124.91525"
     inkscape:cy="20"
     inkscape:window-width="2560"
     inkscape:window-height="1494"
     inkscape:window-x="-11"
     inkscape:window-y="-11"
     inkscape:window-maximized="1"
     inkscape:current-layer="svg371" />
  <path
     d="M 23.345,0.0548793 C 27.6805,-0.236933 32.0994,0.638495 35.9763,2.59781 41.7292,5.43257 46.3148,10.5184 48.4409,16.5214 49.3997,19.1894 49.9,21.9825 49.9,24.8173 v 10.4635 c 0,0.4169 0,0.8755 -0.0834,1.2923 -0.2501,1.0422 -1.0005,2.001 -2.001,2.4596 -0.7087,0.3335 -1.5008,0.3752 -2.2095,0.2501 -1.5841,-0.2918 -2.8347,-1.7925 -2.8347,-3.4183 0,-3.2517 0,-6.5033 0,-9.7549 0.0417,-0.9171 0.0417,-1.9177 -0.4586,-2.7097 -0.792,-1.5008 -2.793,-2.2095 -4.3355,-1.5841 -1.334,0.4585 -2.2928,1.8342 -2.3345,3.2516 0,3.2933 0,6.5866 0,9.8799 0,0.6253 0.0417,1.2507 -0.1667,1.8343 -0.3335,1.1672 -1.2923,2.0844 -2.4596,2.4179 -1.5424,0.4168 -3.2933,-0.2502 -4.0437,-1.6675 -0.5419,-0.8338 -0.5002,-1.876 -0.4585,-2.8348 0,-3.2933 0,-6.5449 0,-9.8382 -0.0417,-1.6676 -1.4174,-3.1683 -3.0432,-3.3767 -1.0839,-0.1668 -2.2095,0.2084 -3.0015,0.9588 -0.7087,0.667 -1.0839,1.6258 -1.0839,2.5846 v 9.5464 c 0,0.7921 0.0834,1.6259 -0.2084,2.3762 -0.4586,1.3757 -1.8343,2.3762 -3.2934,2.3345 -1.5007,0.0834 -2.9598,-0.9588 -3.4183,-2.3345 -0.2502,-0.7087 -0.2085,-1.4173 -0.2085,-2.1677 0,-3.2933 0,-6.5866 0,-9.88 0,-1.6258 -1.2923,-3.1265 -2.8764,-3.4183 -1.45907,-0.2919 -3.0432,0.4168 -3.79357,1.7508 -0.29181,0.542 -0.45856,1.1673 -0.45856,1.7926 v 10.7137 c 0,1.0422 -0.45857,2.0844 -1.25063,2.7514 C 4.669,39.533 2.70969,39.6163 1.45906,38.6575 0.541938,38.0322 0,36.9483 0,35.8228 V 24.984 C 0,20.8986 1.04219,16.8133 3.0015,13.1864 4.58563,10.2266 6.79506,7.60032 9.42138,5.51594 13.2983,2.26431 18.2591,0.34669 23.345,0.0548793 Z"
     fill="#ffffff"
     id="path367" />
  <path
     d="m 120.769,12.6028 h -5.42 c 0.209,-3.79359 1.001,-7.21196 4.461,-9.37973 3.46,-2.12606 7.254,-2.626309 11.214,-2.292809 2.126,0.166749 4.252,0.625319 6.211,1.542439 3.46,1.58414 5.17,4.29383 5.17,8.0874 0,6.7117 0,13.4234 0,20.1351 0,2.4595 0.5,2.9181 2.959,2.668 0.25,-0.0417 0.542,-0.0834 0.792,-0.1251 0.042,0.1251 0.042,0.2501 0.042,0.3335 v 4.0854 c -1.959,0.667 -3.96,0.8754 -5.92,0.3335 -1.459,-0.4169 -2.376,-1.4591 -2.876,-2.8348 -0.25,-0.7087 -0.417,-1.459 -0.625,-2.2511 -0.209,0.2501 -0.375,0.4586 -0.584,0.667 -4.294,4.3355 -9.38,6.1698 -15.383,4.6273 -4.252,-1.0839 -7.17,-4.9608 -7.295,-9.3797 -0.042,-1.4174 0.083,-2.8347 0.417,-4.2104 0.792,-3.1683 3.043,-5.0859 5.878,-6.3782 2.001,-0.9171 4.169,-1.1673 6.336,-1.4591 2.543,-0.3335 5.045,-0.6253 7.588,-1.0005 1.709,-0.2501 2.584,-1.1672 2.834,-2.8764 0.542,-3.46007 -1,-5.75289 -4.335,-6.58664 -2.001,-0.50025 -4.044,-0.58362 -6.087,-0.20843 -3.001,0.54193 -4.669,2.25112 -5.252,5.21097 0.041,0.4168 -0.042,0.8337 -0.125,1.2923 z m 15.966,6.67 c -2.501,1.334 -4.919,1.6675 -7.379,2.0427 -2.042,0.3335 -4.127,0.6253 -6.128,1.2506 -2.626,0.8754 -3.835,3.0432 -3.585,5.9613 0.209,2.4179 1.834,4.3772 4.461,4.7941 4.043,0.667 7.629,-0.4586 10.463,-3.4601 0.834,-0.8754 1.501,-2.1261 1.668,-3.2933 0.375,-2.3345 0.333,-4.7107 0.5,-7.2953 z m 77.247,7.0035 c -0.125,0.5836 -0.208,1.0839 -0.334,1.5424 -2.334,7.1286 -7.086,10.1718 -12.839,10.8388 -9.964,1.0839 -15.675,-5.4194 -17.134,-12.3395 -1.167,-5.5028 -1,-10.9638 1.418,-16.1331 2.292,-4.87744 5.961,-8.08739 11.422,-9.0462 6.545,-1.1672514 15.799,2.08437 17.342,12.2978 0.417,2.6263 0.5,5.336 0.75,8.0874 h -25.346 c 0.209,3.7519 0.792,7.2536 3.544,9.9633 1.125,1.1256 2.584,1.6675 4.168,1.9593 5.128,0.9172 9.38,-1.5424 11.048,-6.5032 0.166,-0.542 0.417,-0.7087 0.958,-0.667 1.626,0 3.252,0 5.003,0 z M 189.47,16.6882 h 18.968 c -0.209,-2.2095 -0.584,-4.2522 -1.626,-6.1698 -1.001,-1.83425 -2.46,-3.16825 -4.461,-3.83525 -6.545,-2.25113 -13.298,2.95981 -12.881,10.00505 z m 38.144,20.7603 h -5.753 V 1.68065 h 5.461 v 5.0025 c 0.417,-0.45856 0.667,-0.75037 0.917,-1.04219 3.919,-4.46056 8.838,-5.6278215 14.424,-4.25213 3.877,0.95881 6.045,3.7102 6.795,7.54545 0.292,1.58412 0.5,3.20992 0.5,4.79402 0.042,7.6705 0.042,15.341 0.042,23.0116 0,0.2084 -0.042,0.4168 -0.042,0.667 H 244.08 V 36.448 c 0,-7.1702 0.042,-14.3405 -0.041,-21.5107 0,-1.5841 -0.25,-3.21 -0.709,-4.7524 -0.75,-2.50125 -2.751,-3.83525 -5.378,-3.96031 -4.794,-0.16675 -8.587,2.37619 -9.755,6.62831 -0.416,1.5424 -0.542,3.1683 -0.542,4.7941 -0.041,6.2948 -0.041,12.5479 -0.041,18.7594 z M 151.784,1.68065 h 5.545 V 16.8549 c 0.333,-0.3335 0.542,-0.5002 0.75,-0.7087 4.544,-4.6273 9.088,-9.2963 13.632,-13.92362 0.375,-0.41688 0.75,-0.58363 1.334,-0.58363 2.126,0.04169 4.294,0 6.628,0 -0.333,0.3335 -0.5,0.54194 -0.709,0.75037 -4.002,4.00202 -7.962,8.04568 -12.006,12.00598 -0.458,0.4586 -0.458,0.7504 -0.166,1.2507 4.377,6.9618 8.712,13.9236 13.048,20.8854 0.167,0.2501 0.292,0.5003 0.5,0.8755 -0.292,0.0416 -0.5,0.0416 -0.75,0.0416 -2.001,0 -3.961,0 -5.962,0 -0.541,0 -0.792,-0.2084 -1.083,-0.6253 -3.335,-5.5861 -6.67,-11.1722 -10.005,-16.8 -0.167,-0.2502 -0.292,-0.5003 -0.501,-0.7921 -1.542,1.5424 -3.043,3.0015 -4.544,4.5439 -0.208,0.2085 -0.25,0.5837 -0.25,0.8755 0,3.9186 0,7.8372 0,11.7559 v 1.0005 c -1.084,0 -2.167,0 -3.21,0 -0.75,0 -1.792,0.2084 -2.209,-0.2085 -0.375,-0.3335 -0.167,-1.4174 -0.167,-2.1677 V 2.63945 c 0.125,-0.20843 0.125,-0.54193 0.125,-0.9588 z M 87.7939,1.63895 c -4.5023,4.46058 -8.8795,8.83775 -13.2983,13.21495 4.7523,7.5871 9.3796,15.0075 14.0903,22.5946 -0.3752,0 -0.6253,0.0417 -0.8754,0.0417 -1.9176,0 -3.8769,0 -5.7946,0 -0.5419,0 -0.8754,-0.2084 -1.1672,-0.667 -3.335,-5.5861 -6.67,-11.1722 -10.005,-16.8 -0.1251,-0.2502 -0.2918,-0.4586 -0.5003,-0.7921 -0.8337,0.8754 -1.5841,1.8342 -2.5012,2.5012 -1.876,1.4174 -2.4179,3.1683 -2.2928,5.5028 0.2084,3.0432 0.0417,6.1281 0.0417,9.1713 v 1.0005 H 59.9883 V 1.68065 h 5.5028 V 16.6048 c 0.125,0.0834 0.2501,0.1667 0.3334,0.2501 0.1668,-0.2501 0.2502,-0.5419 0.4169,-0.7504 4.5023,-4.6273 9.0462,-9.21291 13.5485,-13.88192 0.4168,-0.41688 0.792,-0.62531 1.4173,-0.58363 1.876,0.04169 3.7519,0 5.6279,0 0.2918,0 0.5419,0 0.9588,0 z M 98.7994,7.60028 C 101.592,3.51489 104.552,0.0965214 110.055,1.09702 v 6.12807 c -1.459,0.08337 -2.918,0.04169 -4.294,0.3335 -3.377,0.70869 -6.0028,3.79361 -6.5448,7.54541 -0.0833,0.7504 -0.1667,1.5008 -0.1667,2.2512 0,6.3781 0,12.7563 0,19.1345 v 1.0005 H 93.38 V 1.76401 h 5.4194 c 0,1.87594 0,3.75189 0,5.83627 z"
     fill="#ffffff"
     id="path369" />
</svg>

<svg width="250" height="40" viewBox="0 0 250 40" fill="none" xmlns="http://www.w3.org/2000/svg">
<path d="M23.345 0.0548793C27.6805 -0.236933 32.0994 0.638495 35.9763 2.59781C41.7292 5.43257 46.3148 10.5184 48.4409 16.5214C49.3997 19.1894 49.9 21.9825 49.9 24.8173V35.2808C49.9 35.6977 49.9 36.1563 49.8166 36.5731C49.5665 37.6153 48.8161 38.5741 47.8156 39.0327C47.1069 39.3662 46.3148 39.4079 45.6061 39.2828C44.022 38.991 42.7714 37.4903 42.7714 35.8645C42.7714 32.6128 42.7714 29.3612 42.7714 26.1096C42.8131 25.1925 42.8131 24.1919 42.3128 23.3999C41.5208 21.8991 39.5198 21.1904 37.9773 21.8158C36.6433 22.2743 35.6845 23.65 35.6428 25.0674C35.6428 28.3607 35.6428 31.654 35.6428 34.9473C35.6428 35.5726 35.6845 36.198 35.4761 36.7816C35.1426 37.9488 34.1838 38.866 33.0165 39.1995C31.4741 39.6163 29.7232 38.9493 28.9728 37.532C28.4309 36.6982 28.4726 35.656 28.5143 34.6972C28.5143 31.4039 28.5143 28.1523 28.5143 24.859C28.4726 23.1914 27.0969 21.6907 25.4711 21.4823C24.3872 21.3155 23.2616 21.6907 22.4696 22.4411C21.7609 23.1081 21.3857 24.0669 21.3857 25.0257V34.5721C21.3857 35.3642 21.4691 36.198 21.1773 36.9483C20.7187 38.324 19.343 39.3245 17.8839 39.2828C16.3832 39.3662 14.9241 38.324 14.4656 36.9483C14.2154 36.2396 14.2571 35.531 14.2571 34.7806C14.2571 31.4873 14.2571 28.194 14.2571 24.9006C14.2571 23.2748 12.9648 21.7741 11.3807 21.4823C9.92163 21.1904 8.3375 21.8991 7.58713 23.2331C7.29532 23.7751 7.12857 24.4004 7.12857 25.0257V35.7394C7.12857 36.7816 6.67 37.8238 5.87794 38.4908C4.669 39.533 2.70969 39.6163 1.45906 38.6575C0.541938 38.0322 0 36.9483 0 35.8228V24.984C0 20.8986 1.04219 16.8133 3.0015 13.1864C4.58563 10.2266 6.79506 7.60032 9.42138 5.51594C13.2983 2.26431 18.2591 0.34669 23.345 0.0548793Z" fill="white"/>
<path d="M120.769 12.6028H115.349C115.558 8.80921 116.35 5.39084 119.81 3.22307C123.27 1.09701 127.064 0.596761 131.024 0.930261C133.15 1.09701 135.276 1.55558 137.235 2.4727C140.695 4.05684 142.405 6.76653 142.405 10.5601C142.405 17.2718 142.405 23.9835 142.405 30.6952C142.405 33.1547 142.905 33.6133 145.364 33.3632C145.614 33.3215 145.906 33.2798 146.156 33.2381C146.198 33.3632 146.198 33.4882 146.198 33.5716V37.657C144.239 38.324 142.238 38.5324 140.278 37.9905C138.819 37.5736 137.902 36.5314 137.402 35.1557C137.152 34.447 136.985 33.6967 136.777 32.9046C136.568 33.1547 136.402 33.3632 136.193 33.5716C131.899 37.9071 126.813 39.7414 120.81 38.1989C116.558 37.115 113.64 33.2381 113.515 28.8192C113.473 27.4018 113.598 25.9845 113.932 24.6088C114.724 21.4405 116.975 19.5229 119.81 18.2306C121.811 17.3135 123.979 17.0633 126.146 16.7715C128.689 16.438 131.191 16.1462 133.734 15.771C135.443 15.5209 136.318 14.6038 136.568 12.8946C137.11 9.43453 135.568 7.14171 132.233 6.30796C130.232 5.80771 128.189 5.72434 126.146 6.09953C123.145 6.64146 121.477 8.35065 120.894 11.3105C120.935 11.7273 120.852 12.1442 120.769 12.6028ZM136.735 19.2728C134.234 20.6068 131.816 20.9403 129.356 21.3155C127.314 21.649 125.229 21.9408 123.228 22.5661C120.602 23.4415 119.393 25.6093 119.643 28.5274C119.852 30.9453 121.477 32.9046 124.104 33.3215C128.147 33.9885 131.733 32.8629 134.567 29.8614C135.401 28.986 136.068 27.7353 136.235 26.5681C136.61 24.2336 136.568 21.8574 136.735 19.2728ZM213.982 26.2763C213.857 26.8599 213.774 27.3602 213.648 27.8187C211.314 34.9473 206.562 37.9905 200.809 38.6575C190.845 39.7414 185.134 33.2381 183.675 26.318C182.508 20.8152 182.675 15.3542 185.093 10.1849C187.385 5.30746 191.054 2.09751 196.515 1.1387C203.06 -0.0285514 212.314 3.22307 213.857 13.4365C214.274 16.0628 214.357 18.7725 214.607 21.5239H189.261C189.47 25.2758 190.053 28.7775 192.805 31.4872C193.93 32.6128 195.389 33.1547 196.973 33.4465C202.101 34.3637 206.353 31.9041 208.021 26.9433C208.187 26.4013 208.438 26.2346 208.979 26.2763C210.605 26.2763 212.231 26.2763 213.982 26.2763ZM189.47 16.6882H208.438C208.229 14.4787 207.854 12.436 206.812 10.5184C205.811 8.68415 204.352 7.35015 202.351 6.68315C195.806 4.43202 189.053 9.64296 189.47 16.6882ZM227.614 37.4485H221.861V1.68065H227.322V6.68315C227.739 6.22459 227.989 5.93278 228.239 5.64096C232.158 1.1804 237.077 0.0131385 242.663 1.38883C246.54 2.34764 248.708 5.09903 249.458 8.93428C249.75 10.5184 249.958 12.1442 249.958 13.7283C250 21.3988 250 29.0693 250 36.7399C250 36.9483 249.958 37.1567 249.958 37.4069H244.08V36.448C244.08 29.2778 244.122 22.1075 244.039 14.9373C244.039 13.3532 243.789 11.7273 243.33 10.1849C242.58 7.68365 240.579 6.34965 237.952 6.22459C233.158 6.05784 229.365 8.60078 228.197 12.8529C227.781 14.3953 227.655 16.0212 227.655 17.647C227.614 23.9418 227.614 30.1949 227.614 36.4064V37.4485ZM151.784 1.68065H157.329V16.8549C157.662 16.5214 157.871 16.3547 158.079 16.1462C162.623 11.5189 167.167 6.8499 171.711 2.22258C172.086 1.8057 172.461 1.63895 173.045 1.63895C175.171 1.68064 177.339 1.63895 179.673 1.63895C179.34 1.97245 179.173 2.18089 178.964 2.38932C174.962 6.39134 171.002 10.435 166.958 14.3953C166.5 14.8539 166.5 15.1457 166.792 15.646C171.169 22.6078 175.504 29.5696 179.84 36.5314C180.007 36.7815 180.132 37.0317 180.34 37.4069C180.048 37.4485 179.84 37.4485 179.59 37.4485C177.589 37.4485 175.629 37.4485 173.628 37.4485C173.087 37.4485 172.836 37.2401 172.545 36.8232C169.21 31.2371 165.875 25.651 162.54 20.0232C162.373 19.773 162.248 19.5229 162.039 19.2311C160.497 20.7735 158.996 22.2326 157.495 23.775C157.287 23.9835 157.245 24.3587 157.245 24.6505C157.245 28.5691 157.245 32.4877 157.245 36.4064V37.4069C156.161 37.4069 155.078 37.4069 154.035 37.4069C153.285 37.4069 152.243 37.6153 151.826 37.1984C151.451 36.8649 151.659 35.781 151.659 35.0307V2.63945C151.784 2.43102 151.784 2.09752 151.784 1.68065ZM87.7939 1.63895C83.2916 6.09953 78.9144 10.4767 74.4956 14.8539C79.2479 22.441 83.8752 29.8614 88.5859 37.4485C88.2107 37.4485 87.9606 37.4902 87.7105 37.4902C85.7929 37.4902 83.8336 37.4902 81.9159 37.4902C81.374 37.4902 81.0405 37.2818 80.7487 36.8232C77.4137 31.2371 74.0787 25.651 70.7437 20.0232C70.6186 19.773 70.4519 19.5646 70.2434 19.2311C69.4097 20.1065 68.6593 21.0653 67.7422 21.7323C65.8662 23.1497 65.3243 24.9006 65.4494 27.2351C65.6578 30.2783 65.4911 33.3632 65.4911 36.4064V37.4069H59.9883V1.68065H65.4911V16.6048C65.6161 16.6882 65.7412 16.7715 65.8245 16.8549C65.9913 16.6048 66.0747 16.313 66.2414 16.1045C70.7437 11.4772 75.2876 6.89159 79.7899 2.22258C80.2067 1.8057 80.5819 1.59727 81.2072 1.63895C83.0832 1.68064 84.9591 1.63895 86.8351 1.63895C87.1269 1.63895 87.377 1.63895 87.7939 1.63895ZM98.7994 7.60028C101.592 3.51489 104.552 0.0965214 110.055 1.09702V7.22509C108.596 7.30846 107.137 7.26678 105.761 7.55859C102.384 8.26728 99.7582 11.3522 99.2162 15.104C99.1329 15.8544 99.0495 16.6048 99.0495 17.3552C99.0495 23.7333 99.0495 30.1115 99.0495 36.4897V37.4902H93.38V1.76401H98.7994C98.7994 3.63995 98.7994 5.5159 98.7994 7.60028Z" fill="white"/>
</svg>
